pro/src/icons/stroke-report.svg

<svg width="48" height="48" viewBox="0 0 48 48" fill="none" xmlns="http://www.w3.org/2000/svg">
<path id="icon" fill="currentColor" fill-rule="evenodd" clip-rule="evenodd" d="M31.2285 3.72782C31.1072 3.28833 30.6852 2.98689 30.2104 3.00044C29.7423 3.0138 29.3445 3.32987 29.2435 3.76585L29.2392 3.78034C29.2319 3.80326 29.2165 3.84819 29.189 3.90986C29.1341 4.03309 29.0318 4.22224 28.852 4.43748C28.5022 4.85639 27.8149 5.42769 26.4728 5.77559C26.4286 5.78705 26.3858 5.80111 26.3447 5.81757C25.0499 6.12927 23.9184 6.0393 22.6464 5.92411L22.5494 5.91531C21.2789 5.79989 19.8416 5.66931 18.2147 6.09257C16.552 6.52514 15.282 7.37371 14.4369 8.09777C14.0122 8.46163 13.6873 8.80034 13.4659 9.05175C13.355 9.17769 13.2694 9.28245 13.2095 9.35844C13.1796 9.39646 13.1561 9.42735 13.139 9.45017L13.1219 9.47321C13.0968 9.50658 13.074 9.54143 13.0534 9.57751C13.011 9.65202 12.9796 9.72997 12.959 9.80944C12.9189 9.96394 12.9176 10.13 12.9632 10.2948L20.1893 36.4278C15.082 37.2725 10.5676 39.7886 7.25604 43.3751C6.88246 43.7797 6.92236 44.3975 7.34517 44.755C7.76797 45.1125 8.41357 45.0743 8.78715 44.6697C12.5329 40.613 17.9543 38.0719 23.9953 38.0719C26.7459 38.0719 29.3679 38.5994 31.7664 39.5599C32.2869 39.7683 32.8854 39.5335 33.1032 39.0354C33.321 38.5374 33.0756 37.9646 32.5551 37.7562C29.9114 36.6976 27.0217 36.1167 23.9953 36.1167C23.4028 36.1167 22.8157 36.1389 22.235 36.1825L15.0688 10.2661C15.2387 10.0767 15.4837 9.82517 15.7997 9.55445C16.4881 8.96463 17.4841 8.3088 18.7507 7.97927C20.0116 7.65123 21.125 7.75026 22.4539 7.8706C23.7632 7.98917 25.2633 8.12473 27.0072 7.67269C27.0571 7.65974 27.1051 7.64348 27.1511 7.6242C28.342 7.29553 29.2039 6.80498 29.8214 6.28494L32.2089 14.9301C32.075 15.109 31.8846 15.3431 31.6432 15.5901C31.1089 16.1368 30.39 16.6802 29.5439 16.9005C28.728 17.113 27.7915 17.0436 26.5069 16.9484H26.5069C26.3912 16.9398 26.2726 16.931 26.151 16.9222C24.7533 16.821 23.0905 16.7398 21.2878 17.2071C20.7432 17.3482 20.4213 17.8851 20.5688 18.4062C20.7163 18.9274 21.2773 19.2354 21.8219 19.0942C23.2649 18.7202 24.6285 18.7727 25.9968 18.8718C26.1294 18.8814 26.2638 18.8918 26.3997 18.9022L26.3999 18.9022L26.3999 18.9022C27.5921 18.9939 28.8998 19.0945 30.0804 18.7871C31.439 18.4334 32.4705 17.606 33.1356 16.9255C33.4741 16.579 33.7345 16.2533 33.9117 16.0124C34.0006 15.8914 34.0694 15.7906 34.1175 15.7175C34.1416 15.681 34.1605 15.6513 34.1742 15.6294L34.1909 15.6024L34.1963 15.5935L34.1983 15.5903L34.1998 15.5878C34.3331 15.3649 34.3694 15.1008 34.3008 14.8525L31.2285 3.72782ZM33.3131 15.1023L34.1998 15.5878C34.1999 15.5876 34.1998 15.5878 33.3131 15.1023ZM35.5668 40.3531C35.8966 39.915 36.535 39.8157 36.9928 40.1313C38.3599 41.0738 39.6207 42.1615 40.7431 43.3742C41.1171 43.7784 41.078 44.3963 40.6556 44.7542C40.2332 45.1122 39.5876 45.0747 39.2135 44.6705C38.1924 43.5672 37.0444 42.5765 35.7985 41.7177C35.3408 41.4021 35.237 40.7911 35.5668 40.3531Z"/>
</svg>

<svg xmlns="http://www.w3.org/2000/svg" width="48" height="48" fill="none"><path id="icon" fill="currentColor" fill-rule="evenodd" d="M31.229 3.728A1.016 1.016 0 0 0 30.21 3a1.01 1.01 0 0 0-.966.766l-.005.014a1 1 0 0 1-.05.13 2.3 2.3 0 0 1-.337.527c-.35.42-1.037.99-2.38 1.339a1 1 0 0 0-.127.042c-1.295.311-2.427.221-3.699.106l-.097-.009c-1.27-.115-2.707-.246-4.334.178-1.663.432-2.933 1.28-3.778 2.005a10 10 0 0 0-.971.954 7 7 0 0 0-.327.398l-.017.023a1 1 0 0 0-.163.336.93.93 0 0 0 .004.486l7.226 26.133a22.6 22.6 0 0 0-12.933 6.947.95.95 0 0 0 .09 1.38c.422.357 1.068.32 1.441-.085 3.746-4.057 9.167-6.598 15.208-6.598 2.75 0 5.373.527 7.771 1.488.52.208 1.12-.027 1.337-.525.218-.498-.027-1.07-.548-1.279a23 23 0 0 0-8.56-1.64q-.889 0-1.76.066l-7.166-25.916c.17-.19.415-.44.73-.712.69-.59 1.685-1.245 2.952-1.575 1.26-.328 2.374-.229 3.703-.108 1.31.118 2.81.254 4.553-.198q.075-.02.144-.049c1.191-.328 2.053-.819 2.67-1.34l2.388 8.646a7 7 0 0 1-.566.66c-.534.547-1.253 1.09-2.1 1.31-.815.213-1.751.144-3.036.048l-.356-.026c-1.398-.101-3.06-.182-4.863.285-.545.141-.867.678-.72 1.2.148.52.71.828 1.254.687 1.443-.374 2.807-.321 4.175-.222l.403.03c1.192.092 2.5.192 3.68-.115 1.359-.354 2.39-1.181 3.056-1.861a8.7 8.7 0 0 0 .981-1.208q.038-.056.057-.089l.017-.027.005-.008.002-.004.002-.002a.94.94 0 0 0 .1-.735zm2.084 11.374.887.486zm2.254 25.251c.33-.438.968-.537 1.426-.222a22.6 22.6 0 0 1 3.75 3.243.95.95 0 0 1-.087 1.38 1.054 1.054 0 0 1-1.442-.084 20.5 20.5 0 0 0-3.416-2.952.95.95 0 0 1-.231-1.365" clip-rule="evenodd"/></svg>
